;FLAVOR:UltiGCode
;TIME:9357
;MATERIAL:104400
;MATERIAL2:0
;NOZZLE_DIAMETER:0.8
;MINX:19.65
;MINY:56.15
;MINZ:0.53
;MAXX:203.35
;MAXY:166.85
;MAXZ:79.73
;Generated with Cura_SteamEngine 4.4.1
M82 ;absolute extrusion mode

G92 E0
G92 E0
G10
;LAYER_COUNT:133
;LAYER:0
M107
G0 F5367.3 X21.959 Y56.328 Z0.53
;TYPE:SKIRT
G11
G1 F2460 X22.461 Y56.204 E0.19184
G1 X22.916 Y56.16 E0.36143
G1 X23.236 Y56.151 E0.4802
G1 X23.33 Y56.15 E0.51508
G1 X199.341 Y56.15 E65.81516
G1 X200.039 Y56.16 E66.07414
G1 X200.554 Y56.208 E66.26603
G1 X201.056 Y56.334 E66.45805
G1 X201.532 Y56.536 E66.64989
G1 X201.972 Y56.808 E66.84181
G1 X202.364 Y57.145 E67.03359
G1 X202.7 Y57.539 E67.2257
G1 X202.971 Y57.98 E67.41774
G1 X203.171 Y58.457 E67.60963
G1 X203.295 Y58.959 E67.80147
G1 X203.34 Y59.416 E67.97183
G1 X203.349 Y59.736 E68.0906
G1 X203.35 Y59.83 E68.12548
G1 X203.35 Y127.841 E93.35756
G1 X203.34 Y128.539 E93.61654
G1 X203.292 Y129.054 E93.80844
G1 X203.166 Y129.556 E94.00046
G1 X202.964 Y130.032 E94.1923
G1 X202.692 Y130.472 E94.38421
G1 X202.475 Y130.737 E94.51128
G1 X202.334 Y130.893 E94.58929
G1 X202.244 Y130.99 E94.63838
G1 X202.063 Y131.175 E94.73441
G1 X167.858 Y165.38 E112.68085
G1 X167.825 Y165.412 E112.69791
G1 X167.341 Y165.883 E112.94846
G1 X166.944 Y166.214 E113.14023
G1 X166.5 Y166.48 E113.33225
G1 X166.021 Y166.674 E113.52398
G1 X165.517 Y166.793 E113.71611
G1 X165.111 Y166.83 E113.86736
G1 X164.544 Y166.848 E114.07782
G1 X164.438 Y166.85 E114.11715
G1 X58.659 Y166.85 E153.36116
G1 X57.961 Y166.84 E153.62015
G1 X57.446 Y166.792 E153.81204
G1 X56.944 Y166.666 E154.00406
G1 X56.468 Y166.464 E154.1959
G1 X56.028 Y166.192 E154.38781
G1 X55.763 Y165.975 E154.51488
G1 X55.607 Y165.834 E154.59289
G1 X55.509 Y165.742 E154.64276
G1 X55.314 Y165.551 E154.74403
G1 X55.289 Y165.527 E154.75689
G1 X21.112 Y131.35 E172.68865
G1 X21.08 Y131.317 E172.7057
G1 X20.611 Y130.835 E172.9552
G1 X20.28 Y130.438 E173.14697
G1 X20.014 Y129.994 E173.33899
G1 X19.82 Y129.515 E173.53072
G1 X19.701 Y129.011 E173.72285
G1 X19.663 Y128.571 E173.8867
G1 X19.651 Y128.01 E174.09487
G1 X19.65 Y127.938 E174.12159
G1 X19.65 Y60.124 E199.28058
G1 X19.66 Y59.459 E199.52733
G1 X19.708 Y58.944 E199.71922
G1 X19.834 Y58.442 E199.91124
G1 X20.037 Y57.966 E200.10322
G1 X20.31 Y57.526 E200.29533
G1 X20.647 Y57.134 E200.48712
G1 X21.041 Y56.799 E200.67899
G1 X21.482 Y56.528 E200.87102
G1 X21.959 Y56.328 E201.06291
G10
;MESH:Boitier 2.stl
G0 F5367.3 X23.414 Y59.914
G0 X29.013 Y73.328
G0 X29.101 Y73.282
;TYPE:WALL-OUTER
G11
G1 F2460 X29.704 Y74.155 E201.45655
G1 X30.499 Y74.86 E201.85076
G1 X31.439 Y75.353 E202.24455
G1 X32.469 Y75.607 E202.63813
G1 X33.531 Y75.607 E203.03213
G1 X34.561 Y75.353 E203.42571
G1 X35.501 Y74.86 E203.8195
G1 X36.296 Y74.155 E204.21372
G1 X36.899 Y73.282 E204.60735
G1 X37.275 Y72.289 E205.00128
G1 X37.403 Y71.236 E205.39482
G1 X37.275 Y70.183 E205.78836
G1 X36.899 Y69.19 E206.18229
G1 X36.296 Y68.316 E206.57622
G1 X35.501 Y67.612 E206.97019
G1 X34.561 Y67.119 E207.36398
G1 X33.531 Y66.865 E207.75756
G1 X32.469 Y66.865 E208.15156
G1 X31.439 Y67.119 E208.54514
G1 X30.499 Y67.612 E208.93894
G1 X29.704 Y68.316 E209.3329
G1 X29.101 Y69.19 E209.72684
G1 X28.725 Y70.183 E210.12077
G1 X28.597 Y71.236 E210.51431
G1 X28.725 Y72.289 E210.90785
G1 X29.101 Y73.282 E211.30178
G0 F5367.3 X29.328 Y73.611
G0 X29.246 Y73.666
G0 X30.477 Y74.892
G0 X32.465 Y75.646
G0 X187.013 Y68.099
G0 X187.101 Y68.145
G1 F2460 X186.725 Y69.138 E211.6957
G1 X186.597 Y70.191 E212.08924
G1 X186.725 Y71.244 E212.48278
G1 X187.101 Y72.237 E212.87671
G1 X187.704 Y73.111 E213.27065
G1 X188.499 Y73.815 E213.66462
G1 X189.439 Y74.308 E214.05841
G1 X190.469 Y74.562 E214.45199
G1 X191.531 Y74.562 E214.84599
G1 X192.561 Y74.308 E215.23957
G1 X193.501 Y73.815 E215.63336
G1 X194.296 Y73.111 E216.02733
G1 X194.899 Y72.237 E216.42127
G1 X195.275 Y71.244 E216.8152
G1 X195.403 Y70.191 E217.20873
G1 X195.275 Y69.138 E217.60227
G1 X194.899 Y68.145 E217.9962
G1 X194.296 Y67.272 E218.38984
G1 X193.501 Y66.567 E218.78405
G1 X192.561 Y66.074 E219.17784
G1 X191.531 Y65.82 E219.57142
G1 X190.469 Y65.82 E219.96542
G1 X189.439 Y66.074 E220.359
G1 X188.499 Y66.567 E220.75279
G1 X187.704 Y67.272 E221.147
G1 X187.101 Y68.145 E221.54064
G0 F5367.3 X186.96 Y68.519
G0 X186.867 Y68.483
G0 X164.796 Y163.008
G0 X164.834 Y163.1
G1 F2460 X58.166 Y163.1 E261.11447
G1 X23.4 Y128.334 E279.35526
G1 X23.4 Y59.9 E304.74427
G1 X199.6 Y59.9 E370.11447
G1 X199.6 Y128.334 E395.50348
G1 X164.834 Y163.1 E413.74427
G0 F5367.3 X164.434 Y163.1
G0 X164.55 Y162.41
;TYPE:SKIN
G1 F2460 X58.45 Y162.41 E453.10737
G1 X24.09 Y128.05 E471.13515
G1 X24.09 Y60.59 E496.16281
G1 X198.91 Y60.59 E561.02103
G1 X198.91 Y128.05 E586.04869
G1 X164.55 Y162.41 E604.07646
G0 F5367.3 X189.193 Y74.958
G1 F2460 X190.385 Y75.252 E604.53194
G1 X191.615 Y75.252 E604.98827
G1 X192.807 Y74.958 E605.44376
G1 X193.895 Y74.387 E605.89962
G1 X194.816 Y73.572 E606.35588
G1 X195.514 Y72.56 E606.81198
G1 X195.95 Y71.41 E607.26826
G1 X196.099 Y70.191 E607.72388
G1 X195.95 Y68.972 E608.17949
G1 X195.514 Y67.822 E608.63578
G1 X194.816 Y66.811 E609.09157
G1 X193.896 Y65.995 E609.5478
G1 X192.807 Y65.424 E610.00399
G1 X191.615 Y65.13 E610.45947
G1 X190.385 Y65.13 E610.9158
G1 X189.193 Y65.424 E611.37129
G1 X188.104 Y65.995 E611.82748
G1 X187.184 Y66.811 E612.28371
G1 X186.486 Y67.822 E612.7395
G1 X186.05 Y68.972 E613.19578
G1 X185.901 Y70.191 E613.6514
G1 X186.05 Y71.41 E614.10701
G1 X186.486 Y72.56 E614.5633
G1 X187.184 Y73.572 E615.01939
G1 X188.105 Y74.387 E615.47566
G1 X189.193 Y74.958 E615.93152
G0 F5367.3 X36.816 Y74.616
G1 F2460 X37.514 Y73.605 E616.38731
G1 X37.95 Y72.455 E616.84359
G1 X38.099 Y71.236 E617.29921
G1 X37.95 Y70.017 E617.75482
G1 X37.514 Y68.867 E618.21111
G1 X36.816 Y67.855 E618.6672
G1 X35.895 Y67.04 E619.12347
G1 X34.807 Y66.469 E619.57933
G1 X33.615 Y66.175 E620.03481
G1 X32.385 Y66.175 E620.49114
G1 X31.193 Y66.469 E620.94663
G1 X30.105 Y67.04 E621.40249
G1 X29.184 Y67.855 E621.85875
G1 X28.486 Y68.867 E622.31485
G1 X28.05 Y70.017 E622.77113
G1 X27.901 Y71.236 E623.22674
G1 X28.05 Y72.455 E623.68236
G1 X28.486 Y73.605 E624.13864
G1 X29.184 Y74.616 E624.59443
G1 X30.104 Y75.432 E625.05067
G1 X31.193 Y76.003 E625.50686
G1 X32.385 Y76.297 E625.96234
G1 X33.615 Y76.297 E626.41867
G1 X34.807 Y76.003 E626.87416
G1 X35.896 Y75.432 E627.33034
G1 X36.816 Y74.616 E627.78658
G0 F5367.3 X59.139 Y162.094
G1 F2460 X24.405 Y127.359 E646.01084
G0 F5367.3 X24.405 Y126.369
G1 F2460 X60.129 Y162.094 E664.75453
G0 F5367.3 X61.119 Y162.094
G1 F2460 X24.405 Y125.379 E684.01764
G0 F5367.3 X24.405 Y124.389
G1 F2460 X62.109 Y162.094 E703.80019
G0 F5367.3 X63.099 Y162.094
G1 F2460 X24.405 Y123.4 E724.10189
G0 F5367.3 X24.405 Y122.41
G1 F2460 X64.089 Y162.094 E744.92302
G0 F5367.3 X65.079 Y162.094
G1 F2460 X24.405 Y121.42 E766.26358
G0 F5367.3 X24.405 Y120.43
G1 F2460 X66.069 Y162.094 E788.12357
G0 F5367.3 X67.059 Y162.094
G1 F2460 X24.405 Y119.44 E810.50298
G0 F5367.3 X24.405 Y118.45
G1 F2460 X68.049 Y162.094 E833.40182
G0 F5367.3 X69.039 Y162.094
G1 F2460 X24.405 Y117.46 E856.82008
G0 F5367.3 X24.405 Y116.47
G1 F2460 X70.029 Y162.094 E880.75778
G0 F5367.3 X71.018 Y162.094
G1 F2460 X24.405 Y115.48 E905.21463
G0 F5367.3 X24.405 Y114.49
G1 F2460 X72.008 Y162.094 E930.19091
G0 F5367.3 X72.998 Y162.094
G1 F2460 X24.405 Y113.5 E955.68662
G0 F5367.3 X24.405 Y112.51
G1 F2460 X73.988 Y162.094 E981.70176
G0 F5367.3 X74.978 Y162.094
G1 F2460 X24.405 Y111.52 E1008.23632
G0 F5367.3 X24.405 Y110.53
G1 F2460 X75.968 Y162.094 E1035.29031
G0 F5367.3 X76.958 Y162.094
G1 F2460 X24.405 Y109.54 E1062.86372
G0 F5367.3 X24.405 Y108.55
G1 F2460 X77.948 Y162.094 E1090.95656
G0 F5367.3 X78.938 Y162.094
G1 F2460 X24.405 Y107.56 E1119.56883
G0 F5367.3 X24.405 Y106.57
G1 F2460 X79.928 Y162.094 E1148.70052
G0 F5367.3 X80.918 Y162.094
G1 F2460 X24.405 Y105.58 E1178.35165
G0 F5367.3 X24.405 Y104.59
G1 F2460 X81.908 Y162.094 E1208.52219
G0 F5367.3 X82.898 Y162.094
G1 F2460 X24.405 Y103.601 E1239.2119
G0 F5367.3 X24.405 Y102.611
G1 F2460 X83.888 Y162.094 E1270.42104
G0 F5367.3 X84.878 Y162.094
G1 F2460 X24.405 Y101.621 E1302.14961
G0 F5367.3 X24.405 Y100.631
G1 F2460 X85.868 Y162.094 E1334.3976
G0 F5367.3 X86.858 Y162.094
G1 F2460 X24.405 Y99.641 E1367.16501
G0 F5367.3 X24.405 Y98.651
G1 F2460 X87.848 Y162.094 E1400.45186
G0 F5367.3 X88.838 Y162.094
G1 F2460 X24.405 Y97.661 E1434.25813
G0 F5367.3 X24.405 Y96.671
G1 F2460 X89.828 Y162.094 E1468.58383
G0 F5367.3 X90.817 Y162.094
G1 F2460 X24.405 Y95.681 E1503.42869
G0 F5367.3 X24.405 Y94.691
G1 F2460 X91.807 Y162.094 E1538.79297
G0 F5367.3 X92.797 Y162.094
G1 F2460 X24.405 Y93.701 E1574.67669
G0 F5367.3 X24.405 Y92.711
G1 F2460 X93.787 Y162.094 E1611.07983
G0 F5367.3 X94.777 Y162.094
G1 F2460 X24.405 Y91.721 E1648.0024
G0 F5367.3 X24.405 Y90.731
G1 F2460 X95.767 Y162.094 E1685.44439
G0 F5367.3 X96.757 Y162.094
G1 F2460 X24.405 Y89.741 E1723.40581
G0 F5367.3 X24.405 Y88.751
G1 F2460 X97.747 Y162.094 E1761.88666
G0 F5367.3 X98.737 Y162.094
G1 F2460 X24.405 Y87.761 E1800.88693
G0 F5367.3 X24.405 Y86.771
G1 F2460 X99.727 Y162.094 E1840.40663
G0 F5367.3 X100.717 Y162.094
G1 F2460 X24.405 Y85.781 E1880.44575
G0 F5367.3 X24.405 Y84.792
G1 F2460 X101.707 Y162.094 E1921.00404
G0 F5367.3 X102.697 Y162.094
G1 F2460 X24.405 Y83.802 E1962.08176
G0 F5367.3 X24.405 Y82.812
G1 F2460 X103.687 Y162.094 E2003.6789
G0 F5367.3 X104.677 Y162.094
G1 F2460 X24.405 Y81.822 E2045.79547
G0 F5367.3 X24.405 Y80.832
G1 F2460 X105.667 Y162.094 E2088.43147
G0 F5367.3 X106.657 Y162.094
G1 F2460 X24.405 Y79.842 E2131.58689
G0 F5367.3 X24.405 Y78.852
G1 F2460 X107.647 Y162.094 E2175.26174
G0 F5367.3 X108.637 Y162.094
G1 F2460 X24.405 Y77.862 E2219.45602
G0 F5367.3 X24.405 Y76.872
G1 F2460 X109.627 Y162.094 E2264.16972
G0 F5367.3 X110.616 Y162.094
G1 F2460 X24.405 Y75.882 E2309.40259
G0 F5367.3 X24.405 Y74.892
G1 F2460 X111.606 Y162.094 E2355.15488
G0 F5367.3 X112.596 Y162.094
G1 F2460 X24.405 Y73.902 E2401.4266
G0 F5367.3 X24.405 Y72.912
G1 F2460 X113.586 Y162.094 E2448.21774
G0 F5367.3 X114.576 Y162.094
G1 F2460 X24.405 Y71.922 E2495.52832
G0 F5367.3 X24.405 Y70.932
G1 F2460 X115.566 Y162.094 E2543.35831
G0 F5367.3 X116.556 Y162.094
G1 F2460 X30.411 Y75.948 E2588.55655
G1 X30.288 Y75.825
G0 F5367.3 X31.971 Y76.518
G1 F2460 X117.546 Y162.094 E2633.45573
G0 F5367.3 X118.536 Y162.094
G1 F2460 X33.052 Y76.61 E2678.30689
G0 F5367.3 X33.966 Y76.534
G1 F2460 X119.526 Y162.094 E2723.19793
G0 F5367.3 X120.516 Y162.094
G1 F2460 X34.761 Y76.339 E2768.19129
G0 F5367.3 X35.439 Y76.027
G1 F2460 X121.506 Y162.094 E2813.34834
G0 F5367.3 X122.496 Y162.094
G1 F2460 X36.086 Y75.684 E2858.68535
G0 F5367.3 X36.611 Y75.219
G1 F2460 X123.486 Y162.094 E2904.26634
G0 F5367.3 X124.476 Y162.094
G1 F2460 X37.116 Y74.734 E2950.10179
G0 F5367.3 X37.52 Y74.148
G1 F2460 X125.466 Y162.094 E2996.2447
G0 F5367.3 X126.456 Y162.094
G1 F2460 X37.881 Y73.52 E3042.71737
G0 F5367.3 X38.153 Y72.801
G1 F2460 X127.446 Y162.094 E3089.56702
G0 F5367.3 X128.436 Y162.094
G1 F2460 X38.323 Y71.982 E3136.84664
G0 F5367.3 X38.395 Y71.064
G1 F2460 X129.425 Y162.094 E3184.60764
G0 F5367.3 X130.415 Y162.094
G1 F2460 X38.254 Y69.932 E3232.96231
G1 X38.131 Y69.809
G0 F5367.3 X37.268 Y67.957
G1 F2460 X131.405 Y162.094 E3282.35348
G0 F5367.3 X132.395 Y162.094
G1 F2460 X31.206 Y60.905 E3335.44464
G0 F5367.3 X30.216 Y60.905
G1 F2460 X36.198 Y66.887 E3338.58323
G1 X36.321 Y67.01
G0 F5367.3 X34.353 Y66.031
G1 F2460 X29.226 Y60.905 E3341.27297
G0 F5367.3 X28.236 Y60.905
G1 F2460 X33.19 Y65.859 E3343.8722
G0 F5367.3 X32.229 Y65.887
G1 F2460 X27.246 Y60.905 E3346.48639
G0 F5367.3 X26.256 Y60.905
G1 F2460 X31.435 Y66.083 E3349.20341
G0 F5367.3 X30.72 Y66.359
G1 F2460 X25.267 Y60.905 E3352.06471
G0 F5367.3 X24.405 Y61.033
G1 F2460 X30.071 Y66.699 E3355.03751
G0 F5367.3 X29.518 Y67.136
G1 F2460 X24.405 Y62.023 E3357.72016
G0 F5367.3 X24.405 Y63.013
G1 F2460 X28.993 Y67.601 E3360.12737
G0 F5367.3 X28.579 Y68.177
G1 F2460 X24.405 Y64.003 E3362.31735
G0 F5367.3 X24.405 Y64.993
G1 F2460 X28.185 Y68.773 E3364.30062
G0 F5367.3 X27.913 Y69.491
G1 F2460 X24.405 Y65.982 E3366.14143
G0 F5367.3 X24.405 Y66.972
G1 F2460 X27.703 Y70.27 E3367.8718
G0 F5367.3 X27.593 Y71.151
G1 F2460 X24.405 Y67.962 E3369.54472
G0 F5367.3 X24.405 Y68.952
G1 F2460 X27.71 Y72.257 E3371.27877
G1 X27.833 Y72.38
G0 F5367.3 X28.2 Y73.737
G1 F2460 X24.405 Y69.942 E3373.2699
G1 X24.282 Y69.819
G0 F5367.3 X32.196 Y60.905
G1 F2460 X133.385 Y162.094 E3426.36106
G0 F5367.3 X134.375 Y162.094
G1 F2460 X33.186 Y60.905 E3479.45222
G0 F5367.3 X34.176 Y60.905
G1 F2460 X135.365 Y162.094 E3532.54338
G0 F5367.3 X136.355 Y162.094
G1 F2460 X35.166 Y60.905 E3585.63454
G0 F5367.3 X36.156 Y60.905
G1 F2460 X137.345 Y162.094 E3638.7257
G0 F5367.3 X138.335 Y162.094
G1 F2460 X37.146 Y60.905 E3691.81686
G0 F5367.3 X38.136 Y60.905
G1 F2460 X139.325 Y162.094 E3744.90802
G0 F5367.3 X140.315 Y162.094
G1 F2460 X39.126 Y60.905 E3797.99918
G0 F5367.3 X40.116 Y60.905
G1 F2460 X141.305 Y162.094 E3851.09034
G0 F5367.3 X142.295 Y162.094
G1 F2460 X41.106 Y60.905 E3904.1815
G0 F5367.3 X42.096 Y60.905
G1 F2460 X143.285 Y162.094 E3957.27266
G0 F5367.3 X144.275 Y162.094
G1 F2460 X43.086 Y60.905 E4010.36382
G0 F5367.3 X44.076 Y60.905
G1 F2460 X145.265 Y162.094 E4063.45498
G0 F5367.3 X146.255 Y162.094
G1 F2460 X45.066 Y60.905 E4116.54614
G0 F5367.3 X46.055 Y60.905
G1 F2460 X147.245 Y162.094 E4169.63756
G0 F5367.3 X148.235 Y162.094
G1 F2460 X47.045 Y60.905 E4222.72898
G0 F5367.3 X48.035 Y60.905
G1 F2460 X149.224 Y162.094 E4275.82014
G0 F5367.3 X150.214 Y162.094
G1 F2460 X49.025 Y60.905 E4328.9113
G0 F5367.3 X50.015 Y60.905
G1 F2460 X151.204 Y162.094 E4382.00246
G0 F5367.3 X152.194 Y162.094
G1 F2460 X51.005 Y60.905 E4435.09362
G0 F5367.3 X51.995 Y60.905
G1 F2460 X153.184 Y162.094 E4488.18478
G0 F5367.3 X154.174 Y162.094
G1 F2460 X52.985 Y60.905 E4541.27594
G0 F5367.3 X53.975 Y60.905
G1 F2460 X155.164 Y162.094 E4594.3671
G0 F5367.3 X156.154 Y162.094
G1 F2460 X54.965 Y60.905 E4647.45826
G0 F5367.3 X55.955 Y60.905
G1 F2460 X157.144 Y162.094 E4700.54942
G0 F5367.3 X158.134 Y162.094
G1 F2460 X56.945 Y60.905 E4753.64058
G0 F5367.3 X57.935 Y60.905
G1 F2460 X159.124 Y162.094 E4806.73174
G0 F5367.3 X160.114 Y162.094
G1 F2460 X58.925 Y60.905 E4859.8229
G0 F5367.3 X59.915 Y60.905
G1 F2460 X161.104 Y162.094 E4912.91406
G0 F5367.3 X162.094 Y162.094
G1 F2460 X60.905 Y60.905 E4966.00522
G0 F5367.3 X61.895 Y60.905
G1 F2460 X163.084 Y162.094 E5019.09638
G0 F5367.3 X164.074 Y162.094
G1 F2460 X62.885 Y60.905 E5072.18754
G0 F5367.3 X63.875 Y60.905
G1 F2460 X164.741 Y161.771 E5125.10923
G0 F5367.3 X165.236 Y161.276
G1 F2460 X64.865 Y60.905 E5177.77121
G0 F5367.3 X65.854 Y60.905
G1 F2460 X165.731 Y160.781 E5230.17373
G0 F5367.3 X166.226 Y160.286
G1 F2460 X66.844 Y60.905 E5282.31654
G0 F5367.3 X67.834 Y60.905
G1 F2460 X166.721 Y159.791 E5334.19964
G0 F5367.3 X167.216 Y159.297
G1 F2460 X68.824 Y60.905 E5385.82329
G0 F5367.3 X69.814 Y60.905
G1 F2460 X167.711 Y158.802 E5437.18723
G0 F5367.3 X168.206 Y158.307
G1 F2460 X70.804 Y60.905 E5488.29145
G0 F5367.3 X71.794 Y60.905
G1 F2460 X168.701 Y157.812 E5539.13596
G0 F5367.3 X169.196 Y157.317
G1 F2460 X72.784 Y60.905 E5589.72075
G0 F5367.3 X73.774 Y60.905
G1 F2460 X169.691 Y156.822 E5640.04584
G0 F5367.3 X170.186 Y156.327
G1 F2460 X74.764 Y60.905 E5690.11121
G0 F5367.3 X75.754 Y60.905
G1 F2460 X170.681 Y155.832 E5739.91686
G0 F5367.3 X171.176 Y155.337
G1 F2460 X76.744 Y60.905 E5789.4628
G0 F5367.3 X77.734 Y60.905
G1 F2460 X171.671 Y154.842 E5838.74903
G0 F5367.3 X172.166 Y154.347
G1 F2460 X78.724 Y60.905 E5887.77555
G0 F5367.3 X79.714 Y60.905
G1 F2460 X172.661 Y153.852 E5936.54235
G0 F5367.3 X173.156 Y153.357
G1 F2460 X80.704 Y60.905 E5985.04944
G0 F5367.3 X81.694 Y60.905
G1 F2460 X173.651 Y152.862 E6033.29682
G0 F5367.3 X174.146 Y152.367
G1 F2460 X82.684 Y60.905 E6081.28448
G0 F5367.3 X83.674 Y60.905
G1 F2460 X174.641 Y151.872 E6129.01243
G0 F5367.3 X175.136 Y151.377
G1 F2460 X84.664 Y60.905 E6176.48067
G0 F5367.3 X85.653 Y60.905
G1 F2460 X175.631 Y150.882 E6223.68945
G0 F5367.3 X176.126 Y150.387
